icons/widgets/MysteryCube.svg

<path
	d="M142.35 0C147.149 1.60051 151.947 2.40077 155.946 4.7015C193.632 26.3084 231.219 48.1154 268.706 69.8223C270.006 70.5225 271.305 71.4228 272.305 72.4231C275.804 75.7242 275.804 79.6254 272.505 82.9265C271.305 84.1269 269.806 85.1272 268.306 85.9275C231.319 107.434 194.232 128.841 157.245 150.248C147.149 156.05 137.152 155.95 127.056 150.148C90.1687 128.741 53.2817 107.334 16.2946 86.0275C14.9951 85.3273 13.6956 84.527 12.5959 83.5267C8.69731 80.1256 8.59735 75.7242 12.396 72.2231C13.5956 71.1227 14.9951 70.3225 16.3946 69.5222C53.7815 47.8153 91.0684 26.2084 128.555 4.7015C132.654 2.40077 137.652 1.60051 142.35 0ZM96.9663 80.8258C105.163 69.4222 109.662 65.0208 117.359 61.3196C122.357 58.9188 127.656 57.4183 133.254 58.8188C138.452 60.1192 140.551 63.2202 139.651 68.5219C139.152 71.7229 138.152 74.8239 137.552 78.0249C136.253 84.7271 139.052 89.5286 145.449 91.8293C146.149 92.1294 147.149 92.0294 147.848 91.7293C155.546 87.4279 163.243 83.1266 171.04 78.7251C164.843 73.9236 164.643 73.1234 166.642 65.621C167.042 64.3205 167.342 63.0201 167.642 61.6197C169.141 54.1173 167.242 49.8159 160.744 45.8146C155.446 42.5136 149.548 40.9131 143.35 40.713C125.756 40.3129 110.562 47.3151 96.3666 56.8182C90.4686 60.8194 85.1705 65.721 79.0726 70.6226C85.5703 74.4238 91.1684 77.6248 96.9663 80.8258ZM154.846 97.3311C161.044 100.832 166.642 103.833 172.14 107.134C174.339 108.435 175.839 108.235 177.838 107.034C182.336 104.333 186.935 101.933 191.533 99.3317C194.132 97.8313 196.731 96.3308 199.73 94.6302C193.333 91.0291 187.435 87.728 181.537 84.527C180.737 84.0268 179.237 83.8268 178.538 84.2269C170.74 88.3282 163.143 92.6296 154.846 97.3311Z"
	fill="#121212" />
<path
	d="M149.148 244.378C149.148 225.272 149.048 206.166 149.148 186.96C149.148 176.056 154.046 167.754 163.443 162.352C199.13 141.745 234.818 121.139 270.405 100.532C271.405 99.9319 272.305 99.3317 273.404 98.9316C279.602 96.1307 284.5 99.0316 284.8 105.834C285 110.435 284.9 115.037 284.9 119.738C284.9 154.249 284.9 188.76 284.9 223.271C284.9 234.475 280.002 242.978 270.405 248.579C234.718 269.186 199.03 289.793 163.443 310.399C162.643 310.799 161.943 311.299 161.144 311.7C154.446 314.901 149.348 312 149.248 304.497C149.048 294.294 149.148 283.991 149.148 273.787C149.148 263.884 149.148 254.181 149.148 244.378ZM207.028 231.874C214.125 227.773 220.723 223.972 227.221 220.07C227.92 219.67 228.62 218.47 228.62 217.77C228.42 212.468 230.919 208.167 233.518 203.865C238.017 196.163 242.815 188.46 246.814 180.458C249.913 174.256 250.712 167.253 249.013 160.351C247.613 154.249 243.215 151.148 237.117 152.149C233.518 152.749 229.82 153.949 226.421 155.35C215.825 159.951 207.128 167.253 198.531 174.656C195.132 177.557 193.732 180.558 194.032 184.859C194.432 189.16 194.132 193.562 194.132 198.563C198.331 194.062 201.63 189.861 205.528 186.46C209.827 182.658 214.525 179.357 219.323 176.356C221.023 175.356 224.422 175.256 225.821 176.356C227.221 177.457 227.82 180.758 227.321 182.758C226.421 186.46 224.921 190.161 223.022 193.462C219.023 200.664 214.425 207.566 210.326 214.669C207.527 219.77 206.228 225.272 207.028 231.874ZM206.728 264.685C211.626 261.884 215.825 258.883 220.523 256.882C227.221 254.081 229.92 249.88 228.82 242.577C228.12 238.276 228.72 233.875 228.72 228.973C221.523 233.074 215.025 236.776 208.627 240.677C207.827 241.177 206.928 242.277 206.928 243.178C206.728 250.08 206.728 257.082 206.728 264.685Z"
	fill="#121212" />
<path
	d="M135.853 244.378C135.853 263.584 135.853 282.89 135.853 302.097C135.853 304.197 135.653 306.398 135.053 308.299C133.853 312 130.755 313.5 127.056 312.6C125.256 312.1 123.557 311.3 121.958 310.399C85.8703 289.593 49.683 268.786 13.6957 247.779C4.99871 242.678 0.20039 234.675 0.20039 224.572C0.00046065 185.659 0.100426 146.847 0.20039 107.935C0.20039 106.334 0.300355 104.633 0.80018 103.133C2.09972 98.5315 5.49853 96.731 9.99695 98.1314C11.7963 98.7316 13.3958 99.6319 14.9952 100.632C50.3828 121.039 85.6704 141.445 121.058 161.852C131.054 167.554 136.053 176.156 135.953 187.66C135.753 206.666 135.853 225.572 135.853 244.378ZM36.8875 165.853C45.2846 165.253 52.8819 166.553 59.8794 170.755C64.4778 173.556 68.1765 177.257 69.776 182.558C71.5753 188.46 69.776 192.161 64.1779 194.662C61.5788 195.863 58.8798 196.763 56.2807 198.063C50.7826 200.964 48.3835 206.066 49.4831 212.168C49.5831 212.868 49.9829 213.668 50.4827 213.968C57.1804 217.97 63.978 221.871 71.5753 226.272C70.0759 218.57 74.6742 216.269 79.9724 214.569C80.7721 214.269 81.5718 213.868 82.3715 213.568C89.1692 210.767 92.2681 205.666 92.368 198.363C92.468 187.96 88.6693 179.057 82.1716 171.355C73.6746 161.352 62.9784 154.349 50.7826 149.748C46.3842 148.047 41.7858 146.947 36.9875 145.547C36.8875 152.549 36.8875 158.951 36.8875 165.853ZM71.2754 258.683C71.2754 251.08 71.2754 244.078 71.2754 237.176C71.2754 236.476 70.7756 235.475 70.1758 235.075C63.4782 231.074 56.6806 227.173 49.4831 222.971C49.4831 230.674 49.3831 237.576 49.5831 244.578C49.5831 245.478 50.4827 246.579 51.2825 247.079C57.5803 250.88 64.078 254.581 71.2754 258.683Z"
	fill="#121212" />

<path d="M142.35 0c4.799 1.6 9.597 2.4 13.596 4.702 37.686 21.606 75.273 43.413 112.76 65.12 1.3.7 2.599 1.6 3.599 2.601 3.499 3.301 3.499 7.202.2 10.504-1.2 1.2-2.699 2.2-4.199 3-36.987 21.507-74.074 42.914-111.061 64.321-10.096 5.802-20.093 5.702-30.189-.1-36.887-21.407-73.774-42.814-110.761-64.12-1.3-.7-2.6-1.501-3.7-2.501-3.898-3.401-3.998-7.803-.199-11.304 1.2-1.1 2.6-1.9 3.999-2.7C53.78 47.814 91.068 26.207 128.555 4.7c4.099-2.3 9.097-3.1 13.795-4.701ZM96.966 80.826c8.197-11.404 12.696-15.805 20.393-19.506 4.998-2.401 10.297-3.902 15.895-2.501 5.198 1.3 7.297 4.401 6.397 9.703-.499 3.2-1.499 6.302-2.099 9.503-1.299 6.702 1.5 11.504 7.897 13.804.7.3 1.7.2 2.399-.1a6059.236 6059.236 0 0 0 23.192-13.004c-6.197-4.801-6.397-5.602-4.398-13.104.4-1.3.7-2.6 1-4.001 1.499-7.503-.4-11.804-6.898-15.805-5.298-3.301-11.196-4.902-17.394-5.102-17.594-.4-32.788 6.602-46.983 16.105-5.898 4.001-11.197 8.903-17.294 13.805 6.497 3.8 12.095 7.002 17.893 10.203Zm57.88 16.505c6.198 3.501 11.796 6.502 17.294 9.803 2.199 1.301 3.699 1.101 5.698-.1 4.498-2.701 9.097-5.101 13.695-7.702 2.599-1.5 5.198-3.001 8.197-4.702-6.397-3.6-12.295-6.902-18.193-10.103-.8-.5-2.3-.7-2.999-.3-7.798 4.101-15.395 8.403-23.692 13.104Z" fill="#121212"/><path d="M149.148 244.378c0-19.106-.1-38.212 0-57.418 0-10.904 4.898-19.206 14.295-24.608 35.687-20.607 71.375-41.213 106.962-61.82 1-.6 1.9-1.2 2.999-1.6 6.198-2.801 11.096.1 11.396 6.902.2 4.601.1 9.203.1 13.904v103.533c0 11.204-4.898 19.707-14.495 25.308-35.687 20.607-71.375 41.214-106.962 61.82-.8.4-1.5.9-2.299 1.301-6.698 3.201-11.796.3-11.896-7.203-.2-10.203-.1-20.506-.1-30.71v-29.409Zm57.88-12.504c7.097-4.101 13.695-7.902 20.193-11.804.699-.4 1.399-1.6 1.399-2.3-.2-5.302 2.299-9.603 4.898-13.905 4.499-7.702 9.297-15.405 13.296-23.407 3.099-6.202 3.898-13.205 2.199-20.107-1.4-6.102-5.798-9.203-11.896-8.202-3.599.6-7.297 1.8-10.696 3.201-10.596 4.601-19.293 11.903-27.89 19.306-3.399 2.901-4.799 5.902-4.499 10.203.4 4.301.1 8.703.1 13.704 4.199-4.501 7.498-8.702 11.396-12.103 4.299-3.802 8.997-7.103 13.795-10.104 1.7-1 5.099-1.1 6.498 0 1.4 1.101 1.999 4.402 1.5 6.402-.9 3.702-2.4 7.403-4.299 10.704-3.999 7.202-8.597 14.104-12.696 21.207-2.799 5.101-4.098 10.603-3.298 17.205Zm-.3 32.811c4.898-2.801 9.097-5.802 13.795-7.803 6.698-2.801 9.397-7.002 8.297-14.305-.7-4.301-.1-8.702-.1-13.604-7.197 4.101-13.695 7.803-20.093 11.704-.8.5-1.699 1.6-1.699 2.501-.2 6.902-.2 13.904-.2 21.507Z" fill="#121212"/><path d="M135.853 244.378v57.719c0 2.1-.2 4.301-.8 6.202-1.2 3.701-4.298 5.201-7.997 4.301-1.8-.5-3.499-1.3-5.098-2.201-36.088-20.806-72.275-41.613-108.262-62.62C4.999 242.678.2 234.675.2 224.572 0 185.659.1 146.847.2 107.935c0-1.601.1-3.302.6-4.802 1.3-4.602 4.699-6.402 9.197-5.002 1.8.6 3.399 1.5 4.998 2.501 35.388 20.407 70.675 40.813 106.063 61.22 9.996 5.702 14.995 14.304 14.895 25.808-.2 19.006-.1 37.912-.1 56.718Zm-98.966-78.525c8.398-.6 15.995.7 22.992 4.902 4.599 2.801 8.298 6.502 9.897 11.803 1.8 5.902 0 9.603-5.598 12.104-2.6 1.201-5.298 2.101-7.897 3.401-5.498 2.901-7.898 8.003-6.798 14.105.1.7.5 1.5 1 1.8 6.697 4.002 13.495 7.903 21.092 12.304-1.5-7.702 3.1-10.003 8.397-11.703.8-.3 1.6-.701 2.4-1.001 6.797-2.801 9.896-7.902 9.996-15.205.1-10.403-3.699-19.306-10.196-27.008-8.497-10.003-19.194-17.006-31.39-21.607-4.398-1.701-8.996-2.801-13.794-4.201-.1 7.002-.1 13.404-.1 20.306Zm34.388 92.83v-21.507c0-.7-.5-1.701-1.1-2.101-6.697-4.001-13.494-7.902-20.692-12.104 0 7.703-.1 14.605.1 21.607 0 .9.9 2.001 1.7 2.501 6.297 3.801 12.795 7.502 19.992 11.604Z" fill="#121212"/>
